X:1
T:Standin In The Need of Prayer
T:Judgement will find you so
T:Copyright 1881 by The Riverside Press
T:Rodeheaver's Plantation Melodies
T:Rodeheaver's Plantation Melodies
Z:Rodeheaver's Plantation Melodies
%%score [ 1 2 3 4 ]
L:1/8
Q:1/4=100
M:2/2
K:D
V:1 treble nm="Soprano" snm="S."
V:2 treble nm="Alto" snm="A."
V:3 bass nm="Tenor" snm="T."
V:4 bass nm="Bass" snm="B."
V:1
 A2 | A6 FA | A6 A2 | A6 FA | A6 A2 | A6 F2 | A8 | F2 F4 A2 | G2 E2 D2 || d2 | d2 d2 c2 e2 | %11
 d2 B2 A4 | F2 F4 A2 | G2 E2 D2 d2 | d2 d2 c2 e2 | d2 B2 A4 | F2 F4 A2 | G2 E2 D2!D.C.! |] %18
V:2
 A2 | A6 FA | A6 A2 | A6 FA | A6 A2 | A6 F2 | A8 | E2 E4 F2 | E2 C2 D2 || d2 | d2 d2 c2 e2 | %11
w: Just|as you- *|live, just|so you- *|die. And|af- ter|death,|Judge- ment will|find you so.|O|breth- ren breth- ren,|
 d2 B2 A4 | D2 D4 F2 | E2 C2 D2 d2 | d2 d2 c2 e2 | d2 B2 A4 | D2 D4 F2 | E2 C2 D2 |] %18
w: watch and pray.|Judge- ment will|find you so. For|Sa- tan's round you|ev- 'ry day.|Judge- ment will|find you so.|
V:3
 A,2 | A,6 F,A, | A,6 A,2 | A,6 F,A, | A,6 A,2 | A,6 F,2 | A,8 | D2 D4 A,2 | A,2 G,2 F,2 || z2 | %10
 z8 | z8 | D2 D4 A,2 | A,2 G,2 F,2 z2 | z8 | z8 | D2 D4 A,2 | A,2 G,2 F,2 |] %18
V:4
 A,2 | A,6 F,A, | A,6 A,2 | A,6 F,A, | A,6 A,2 | A,6 F,2 | A,8 | D,2 D,4 D,2 | A,,2 A,,2 D,2 || %9
 z2 | z8 | z8 | D,2 D,4 D,2 | A,,2 A,,2 D,2 z2 | z8 | z8 | D,2 D,4 D,2 | A,,2 A,,2 D,2 |] %18

